X:744
T:Bonnie Lass o' Bon Accord
C:James Scott Skinner
B:The Harp and Claymore, 1890()
Z:Nigel Gatherer
M:4/4
L:1/8
Q:130
K:A
E | A>Bc>B AA,CE | A/G/A/f/ e/c/B/A/ B3 
c | A>Bc>B ACE=G | F/D/F/A/ G/E/G/B/ A3 :|
(3e/f/g/ | a>cde eA ag/f/ | eA f/e/d/c/ B3
(3e/f/g/ | a>cde eA a>=G  | F/D/F/A/ G/E/G/B/ A3 
(3e/f/g/ | a>cde eA ag/f/ | eA f/e/d/c/ B3
c | A,/C/E/A/ c>B ACE=G | F/D/F/A/ G/E/G/B/ A3 |]
